public/images/icons/info-box-outline.svg

<svg xmlns="http://www.w3.org/2000/svg" fill="currentColor" viewBox="0 0 24 24"><path d="M12.3 7.29c.2-.18.44-.29.7-.29.27 0 .5.11.71.29.19.21.29.45.29.71 0 .27-.1.5-.29.71-.21.19-.44.29-.71.29-.26 0-.5-.1-.7-.29-.19-.21-.3-.44-.3-.71 0-.26.11-.5.3-.71m-2.5 4.68s2.17-1.72 2.96-1.79c.74-.06.59.79.52 1.23l-.01.06c-.14.53-.31 1.17-.48 1.78-.38 1.39-.75 2.75-.66 3 .1.34.72-.09 1.17-.39.06-.04.11-.08.16-.11 0 0 .08-.08.16.03.02.03.04.06.06.08.09.14.14.19.02.27l-.04.02c-.22.15-1.16.81-1.54 1.05-.41.27-1.98 1.17-1.74-.58.21-1.23.49-2.29.71-3.12.41-1.5.59-2.18-.33-1.59-.37.22-.59.36-.72.45-.11.08-.12.08-.19-.05l-.03-.06-.05-.08c-.07-.1-.07-.11.03-.2M5 3h14a2 2 0 0 1 2 2v14c0 .53-.21 1.04-.59 1.41-.37.38-.88.59-1.41.59H5c-.53 0-1.04-.21-1.41-.59C3.21 20.04 3 19.53 3 19V5c0-1.11.89-2 2-2m14 16V5H5v14h14Z"/></svg>

<svg xmlns="http://www.w3.org/2000/svg" viewBox="0 0 24 24" fill="currentColor"><path d="M12.3 7.29C12.5 7.11 12.74 7 13 7C13.27 7 13.5 7.11 13.71 7.29C13.9 7.5 14 7.74 14 8C14 8.27 13.9 8.5 13.71 8.71C13.5 8.9 13.27 9 13 9C12.74 9 12.5 8.9 12.3 8.71C12.11 8.5 12 8.27 12 8C12 7.74 12.11 7.5 12.3 7.29M9.8 11.97C9.8 11.97 11.97 10.25 12.76 10.18C13.5 10.12 13.35 10.97 13.28 11.41L13.27 11.47C13.13 12 12.96 12.64 12.79 13.25C12.41 14.64 12.04 16 12.13 16.25C12.23 16.59 12.85 16.16 13.3 15.86C13.36 15.82 13.41 15.78 13.46 15.75C13.46 15.75 13.54 15.67 13.62 15.78C13.64 15.81 13.66 15.84 13.68 15.86C13.77 16 13.82 16.05 13.7 16.13L13.66 16.15C13.44 16.3 12.5 16.96 12.12 17.2C11.71 17.47 10.14 18.37 10.38 16.62C10.59 15.39 10.87 14.33 11.09 13.5C11.5 12 11.68 11.32 10.76 11.91C10.39 12.13 10.17 12.27 10.04 12.36C9.93 12.44 9.92 12.44 9.85 12.31L9.82 12.25L9.77 12.17C9.7 12.07 9.7 12.06 9.8 11.97M5 3H19C20.1 3 21 3.89 21 5V19C21 19.53 20.79 20.04 20.41 20.41C20.04 20.79 19.53 21 19 21H5C4.47 21 3.96 20.79 3.59 20.41C3.21 20.04 3 19.53 3 19V5C3 3.89 3.89 3 5 3M19 19V5H5V19H19Z" /></svg>
